build/img/Twitter.svg

<svg width="20" height="20" viewBox="0 0 20 20" fill="none" xmlns="http://www.w3.org/2000/svg">
<path d="M10 0C4.47768 0 0 4.47768 0 10C0 15.5223 4.47768 20 10 20C15.5223 20 20 15.5223 20 10C20 4.47768 15.5223 0 10 0ZM14.8058 7.53795C14.8125 7.64286 14.8125 7.75223 14.8125 7.85938C14.8125 11.1362 12.317 14.9107 7.7567 14.9107C6.35045 14.9107 5.04688 14.5022 3.94866 13.7991C4.14955 13.8214 4.34152 13.8304 4.54688 13.8304C5.70759 13.8304 6.77455 13.4375 7.625 12.7723C6.53571 12.75 5.62054 12.0357 5.30804 11.0536C5.68973 11.1094 6.03348 11.1094 6.42634 11.0089C5.86546 10.895 5.36133 10.5904 4.99959 10.1468C4.63785 9.70331 4.44082 9.14823 4.44196 8.57589V8.54464C4.77009 8.72991 5.15625 8.84375 5.56027 8.85938C5.22063 8.63302 4.94209 8.32636 4.74936 7.96658C4.55662 7.60681 4.45563 7.20503 4.45536 6.79688C4.45536 6.33482 4.57589 5.91295 4.79241 5.54688C5.41496 6.31325 6.19181 6.94005 7.07247 7.38653C7.95312 7.83301 8.91788 8.08918 9.90402 8.13839C9.55357 6.45313 10.8125 5.08929 12.3259 5.08929C13.0402 5.08929 13.683 5.38839 14.1362 5.87054C14.6964 5.76562 15.2321 5.5558 15.7098 5.27455C15.5246 5.84821 15.1362 6.33259 14.6205 6.63839C15.1205 6.58482 15.6027 6.44643 16.0491 6.25223C15.7121 6.74777 15.2902 7.1875 14.8058 7.53795Z" fill="#7D8D9B"/>
</svg>

<svg width="20" height="20" fill="none" xmlns="http://www.w3.org/2000/svg"><path d="M10 0C4.478 0 0 4.478 0 10s4.478 10 10 10 10-4.478 10-10S15.522 0 10 0zm4.806 7.538c.007.105.007.214.007.321 0 3.277-2.496 7.052-7.056 7.052a7.031 7.031 0 01-3.808-1.112c.2.022.393.031.598.031 1.16 0 2.228-.393 3.078-1.058a2.48 2.48 0 01-2.317-1.718 2.71 2.71 0 001.118-.045 2.477 2.477 0 01-1.984-2.433v-.031c.328.185.714.299 1.118.314a2.48 2.48 0 01-.768-3.312 7.038 7.038 0 005.112 2.591c-.35-1.685.909-3.049 2.422-3.049.714 0 1.357.3 1.81.782a4.898 4.898 0 001.574-.596 2.467 2.467 0 01-1.09 1.363c.5-.053.983-.192 1.43-.386a5.194 5.194 0 01-1.244 1.286z" fill="#7D8D9B"/></svg>
